X:183
T:British Heroe. Ru2.183, The
%%VWML:RutherfordVol2-2249-p92-0
F:http://www.vwml.org/record/RutherfordVol2/2249/p92
Z:vmp.Ruairidh Greig 2015 www.village-music-project.org.uk
M:6/8
L:1/8
Q:1/4=100
K:G
(B/c/d)(c B)GB|cAc BGB|(B/c/d)(c B)GB|AFG ABc|
(B/c/d)(c B)GB|cAc BGB|gfe dcB|AFG ABc:|
|:B>AG GDG|BGB gdc|"tr"B>AG GDG|AFG ABc|
"tr"B>AG GDG|BGB gdB|efg dcB|AFG ABc:|
W:Hay Contrary sides .| Hay on your own sides :|
W:Cross over 2 Couples .|. Lead up to the Top Foot
W:it and cast off and turn your Partner. :|
T:French Milliner. Ru2.184, The
B:RUTHERFORD Complete Collection of 200 Country Dances Vol.2; 1759.
Z:vmp.Ruairidh Greig 2015 www.village-music-project.org.uk
M:3/2
L:1/4
Q:1/2=100
K:C
eA2cB2|eA2cB/c/d/B/|eA2cB2|dG2d B/c/d/B/:|
ccgc"tr"e2|ecgce/f/g/e/|ccag"tr"e2|dG2dB/c/d/B/:|
W:Cast off one Cou. & turn your Part
W:ner .| Cast off again & turn her :|
W:Lead up to the Top foot it & cast
W:off .|. Right Hand & Left with the
W:Top Couple. :|
